(.../eagle/upl/pcb-gcode/pcb-gcode.ulp)
(Copyright 2005 - 2012 by John Johnson)
(See readme.txt for licensing terms.)
(This file generated from the board:)
(.../pcbs/LED Board/NeoPixel Stick.brd)
(Current profile is .../upl/pcb-gcode/profiles/mach.pp  )
(This file generated 10/07/2018 11:08)
(Settings from pcb-machine.h)
(  Tool Size)
(0.1000  )
(Z Axis Settings)
(  High     Up        Down     Drill)
(30.0000 	3.0000  	-0.0500 	-1.4800 )
(spindle on time = 3.0000)
(milling depth = -1.4500)
(text depth = -0.1270)
(tool change at 12.7000 15.2400 45.0000 )
(feed rate xy = F100   )
(feed rate z  = F100   )
(Settings from pcb-defaults.h)
(isolate min = 0.0254)
(isolate max = 0.1000)
(isolate step = 0.1270)
(Generated top outlines, top drill, )
(Unit of measure: mm)
(Metric Mode)
G21
(Absolute Coordinates)
G90
G00 X0.0000  Y0.0000  
M03
G04 P3.000000
G00 Z3.0000  
G00 X20.2578 Y10.5584 
G01 Z-0.0500 F100   
G01 X20.4317 Y10.5309 F100   
G01 X20.5991 Y10.4765 
G01 X20.7560 Y10.3965 
G01 X20.8984 Y10.2931 
G01 X21.0229 Y10.1686 
G01 X21.1263 Y10.0262 
G01 X21.2063 Y9.8693  
G01 X21.2607 Y9.7019  
G01 X21.2664 Y9.6654  
G01 X21.1601 Y9.6654  
G01 X21.1460 Y9.7361  
G01 X21.0695 Y9.9209  
G01 X20.9584 Y10.0872 
G01 X20.8170 Y10.2286 
G01 X20.6507 Y10.3397 
G01 X20.4659 Y10.4162 
G01 X20.2698 Y10.4552 
G01 X19.4554 Y10.4552 
G01 X19.4554 Y10.5584 
G01 X20.2578 Y10.5584 
G00 Z3.0000  
G00 X17.1993 Y9.7019  
G01 Z-0.0500 F100   
G01 X17.2537 Y9.8693  F100   
G01 X17.3337 Y10.0262 
G01 X17.4371 Y10.1686 
G01 X17.5616 Y10.2931 
G01 X17.7040 Y10.3965 
G01 X17.8609 Y10.4765 
G01 X18.0283 Y10.5309 
G01 X18.2022 Y10.5584 
G01 X19.0046 Y10.5584 
G01 X19.0046 Y10.4552 
G01 X18.1902 Y10.4552 
G01 X17.9941 Y10.4162 
G01 X17.8093 Y10.3397 
G01 X17.6430 Y10.2286 
G01 X17.5016 Y10.0872 
G01 X17.3905 Y9.9209  
G01 X17.3140 Y9.7361  
G01 X17.2999 Y9.6654  
G01 X17.1936 Y9.6654  
G01 X17.1993 Y9.7019  
G00 Z3.0000  
G00 X2.6665  Y4.6914  
G01 Z-0.0500 F100   
G01 X2.6211  Y4.7036  F100   
G01 X2.5803  Y4.7271  
G01 X2.5471  Y4.7603  
G01 X2.5236  Y4.8011  
G01 X2.5114  Y4.8465  
G01 X2.5114  Y5.2946  
G01 X2.6146  Y5.2946  
G01 X2.6146  Y4.8550  
G01 X2.6261  Y4.8273  
G01 X2.6473  Y4.8061  
G01 X2.6750  Y4.7946  
G01 X3.2646  Y4.7946  
G01 X3.2646  Y4.6914  
G01 X2.6665  Y4.6914  
G00 Z3.0000  
G00 X4.4686  Y4.8465  
G01 Z-0.0500 F100   
G01 X4.4564  Y4.8011  F100   
G01 X4.4329  Y4.7603  
G01 X4.3997  Y4.7271  
G01 X4.3589  Y4.7036  
G01 X4.3135  Y4.6914  
G01 X3.7154  Y4.6914  
G01 X3.7154  Y4.7946  
G01 X4.3050  Y4.7946  
G01 X4.3327  Y4.8061  
G01 X4.3539  Y4.8273  
G01 X4.3654  Y4.8550  
G01 X4.3654  Y5.2946  
G01 X4.4686  Y5.2946  
G01 X4.4686  Y4.8465  
G00 Z3.0000  
G00 X4.3050  Y8.2454  
G01 Z-0.0500 F100   
G01 X3.7154  Y8.2454  F100   
G01 X3.7154  Y8.3486  
G01 X4.3135  Y8.3486  
G01 X4.3589  Y8.3364  
G01 X4.3997  Y8.3129  
G01 X4.4329  Y8.2797  
G01 X4.4564  Y8.2389  
G01 X4.4686  Y8.1935  
G01 X4.4686  Y7.7454  
G01 X4.3654  Y7.7454  
G01 X4.3654  Y8.1850  
G01 X4.3539  Y8.2127  
G01 X4.3327  Y8.2339  
G01 X4.3050  Y8.2454  
G00 Z3.0000  
G00 X2.6750  Y8.2454  
G01 Z-0.0500 F100   
G01 X2.6473  Y8.2339  F100   
G01 X2.6261  Y8.2127  
G01 X2.6146  Y8.1850  
G01 X2.6146  Y7.7454  
G01 X2.5114  Y7.7454  
G01 X2.5114  Y8.1935  
G01 X2.5236  Y8.2389  
G01 X2.5471  Y8.2797  
G01 X2.5803  Y8.3129  
G01 X2.6211  Y8.3364  
G01 X2.6665  Y8.3486  
G01 X3.2646  Y8.3486  
G01 X3.2646  Y8.2454  
G01 X2.6750  Y8.2454  
G00 Z3.0000  
G00 X18.2022 Y8.3216  
G01 Z-0.0500 F100   
G01 X18.0283 Y8.3491  F100   
G01 X17.8609 Y8.4035  
G01 X17.7040 Y8.4835  
G01 X17.5616 Y8.5869  
G01 X17.4371 Y8.7114  
G01 X17.3337 Y8.8538  
G01 X17.2537 Y9.0107  
G01 X17.1993 Y9.1781  
G01 X17.1936 Y9.2146  
G01 X17.2999 Y9.2146  
G01 X17.3140 Y9.1439  
G01 X17.3905 Y8.9591  
G01 X17.5016 Y8.7928  
G01 X17.6430 Y8.6514  
G01 X17.8093 Y8.5403  
G01 X17.9941 Y8.4638  
G01 X18.1902 Y8.4248  
G01 X19.0046 Y8.4248  
G01 X19.0046 Y8.3216  
G01 X18.2022 Y8.3216  
G00 Z3.0000  
G00 X21.1263 Y8.8538  
G01 Z-0.0500 F100   
G01 X21.0229 Y8.7114  F100   
G01 X20.8984 Y8.5869  
G01 X20.7560 Y8.4835  
G01 X20.5991 Y8.4035  
G01 X20.4317 Y8.3491  
G01 X20.2578 Y8.3216  
G01 X19.4554 Y8.3216  
G01 X19.4554 Y8.4248  
G01 X20.2698 Y8.4248  
G01 X20.4659 Y8.4638  
G01 X20.6507 Y8.5403  
G01 X20.8170 Y8.6514  
G01 X20.9584 Y8.7928  
G01 X21.0695 Y8.9591  
G01 X21.1460 Y9.1439  
G01 X21.1601 Y9.2146  
G01 X21.2664 Y9.2146  
G01 X21.2607 Y9.1781  
G01 X21.2063 Y9.0107  
G01 X21.1263 Y8.8538  
G00 Z3.0000  
G00 X12.2635 Y5.7886  
G01 Z-0.0500 F100   
G01 X12.3089 Y5.7764  F100   
G01 X12.3497 Y5.7529  
G01 X12.3829 Y5.7197  
G01 X12.4064 Y5.6789  
G01 X12.4186 Y5.6335  
G01 X12.4186 Y5.3854  
G01 X12.3154 Y5.3854  
G01 X12.3154 Y5.6250  
G01 X12.3039 Y5.6527  
G01 X12.2827 Y5.6739  
G01 X12.2550 Y5.6854  
G01 X11.7154 Y5.6854  
G01 X11.7154 Y5.7886  
G01 X12.2635 Y5.7886  
G00 Z3.0000  
G00 X10.6646 Y5.6250  
G01 Z-0.0500 F100   
G01 X10.6646 Y5.3854  F100   
G01 X10.5614 Y5.3854  
G01 X10.5614 Y5.6335  
G01 X10.5736 Y5.6789  
G01 X10.5971 Y5.7197  
G01 X10.6303 Y5.7529  
G01 X10.6711 Y5.7764  
G01 X10.7165 Y5.7886  
G01 X11.2646 Y5.7886  
G01 X11.2646 Y5.6854  
G01 X10.7250 Y5.6854  
G01 X10.6973 Y5.6739  
G01 X10.6761 Y5.6527  
G01 X10.6646 Y5.6250  
G00 Z3.0000  
G00 X10.6646 Y4.6950  
G01 Z-0.0500 F100   
G01 X10.6761 Y4.6673  F100   
G01 X10.6973 Y4.6461  
G01 X10.7250 Y4.6346  
G01 X11.2646 Y4.6346  
G01 X11.2646 Y4.5314  
G01 X10.7165 Y4.5314  
G01 X10.6711 Y4.5436  
G01 X10.6303 Y4.5671  
G01 X10.5971 Y4.6003  
G01 X10.5736 Y4.6411  
G01 X10.5614 Y4.6865  
G01 X10.5614 Y4.9346  
G01 X10.6646 Y4.9346  
G01 X10.6646 Y4.6950  
G00 Z3.0000  
G00 X17.1993 Y4.6219  
G01 Z-0.0500 F100   
G01 X17.2537 Y4.7893  F100   
G01 X17.3337 Y4.9462  
G01 X17.4371 Y5.0886  
G01 X17.5616 Y5.2131  
G01 X17.7040 Y5.3165  
G01 X17.8609 Y5.3965  
G01 X18.0283 Y5.4509  
G01 X18.2022 Y5.4784  
G01 X19.0046 Y5.4784  
G01 X19.0046 Y5.3752  
G01 X18.1902 Y5.3752  
G01 X17.9941 Y5.3362  
G01 X17.8093 Y5.2597  
G01 X17.6430 Y5.1486  
G01 X17.5016 Y5.0072  
G01 X17.3905 Y4.8409  
G01 X17.3140 Y4.6561  
G01 X17.2999 Y4.5854  
G01 X17.1936 Y4.5854  
G01 X17.1993 Y4.6219  
G00 Z3.0000  
G00 X21.1263 Y3.7738  
G01 Z-0.0500 F100   
G01 X21.0229 Y3.6314  F100   
G01 X20.8984 Y3.5069  
G01 X20.7560 Y3.4035  
G01 X20.5991 Y3.3235  
G01 X20.4317 Y3.2691  
G01 X20.2578 Y3.2416  
G01 X19.4554 Y3.2416  
G01 X19.4554 Y3.3448  
G01 X20.2698 Y3.3448  
G01 X20.4659 Y3.3838  
G01 X20.6507 Y3.4603  
G01 X20.8170 Y3.5714  
G01 X20.9584 Y3.7128  
G01 X21.0695 Y3.8791  
G01 X21.1460 Y4.0639  
G01 X21.1601 Y4.1346  
G01 X21.2664 Y4.1346  
G01 X21.2607 Y4.0981  
G01 X21.2063 Y3.9307  
G01 X21.1263 Y3.7738  
G00 Z3.0000  
G00 X18.2022 Y3.2416  
G01 Z-0.0500 F100   
G01 X18.0283 Y3.2691  F100   
G01 X17.8609 Y3.3235  
G01 X17.7040 Y3.4035  
G01 X17.5616 Y3.5069  
G01 X17.4371 Y3.6314  
G01 X17.3337 Y3.7738  
G01 X17.2537 Y3.9307  
G01 X17.1993 Y4.0981  
G01 X17.1936 Y4.1346  
G01 X17.2999 Y4.1346  
G01 X17.3140 Y4.0639  
G01 X17.3905 Y3.8791  
G01 X17.5016 Y3.7128  
G01 X17.6430 Y3.5714  
G01 X17.8093 Y3.4603  
G01 X17.9941 Y3.3838  
G01 X18.1902 Y3.3448  
G01 X19.0046 Y3.3448  
G01 X19.0046 Y3.2416  
G01 X18.2022 Y3.2416  
G00 Z3.0000  
G00 X20.2578 Y5.4784  
G01 Z-0.0500 F100   
G01 X20.4317 Y5.4509  F100   
G01 X20.5991 Y5.3965  
G01 X20.7560 Y5.3165  
G01 X20.8984 Y5.2131  
G01 X21.0229 Y5.0886  
G01 X21.1263 Y4.9462  
G01 X21.2063 Y4.7893  
G01 X21.2607 Y4.6219  
G01 X21.2664 Y4.5854  
G01 X21.1601 Y4.5854  
G01 X21.1460 Y4.6561  
G01 X21.0695 Y4.8409  
G01 X20.9584 Y5.0072  
G01 X20.8170 Y5.1486  
G01 X20.6507 Y5.2597  
G01 X20.4659 Y5.3362  
G01 X20.2698 Y5.3752  
G01 X19.4554 Y5.3752  
G01 X19.4554 Y5.4784  
G01 X20.2578 Y5.4784  
G00 Z3.0000  
G00 X12.4186 Y4.6865  
G01 Z-0.0500 F100   
G01 X12.4064 Y4.6411  F100   
G01 X12.3829 Y4.6003  
G01 X12.3497 Y4.5671  
G01 X12.3089 Y4.5436  
G01 X12.2635 Y4.5314  
G01 X11.7154 Y4.5314  
G01 X11.7154 Y4.6346  
G01 X12.2550 Y4.6346  
G01 X12.2827 Y4.6461  
G01 X12.3039 Y4.6673  
G01 X12.3154 Y4.6950  
G01 X12.3154 Y4.9346  
G01 X12.4186 Y4.9346  
G01 X12.4186 Y4.6865  
G00 Z3.0000  
G00 X7.3635  Y9.0886  
G01 Z-0.0500 F100   
G01 X7.4089  Y9.0764  F100   
G01 X7.4497  Y9.0529  
G01 X7.4829  Y9.0197  
G01 X7.5064  Y8.9789  
G01 X7.5186  Y8.9335  
G01 X7.5186  Y8.6854  
G01 X7.4154  Y8.6854  
G01 X7.4154  Y8.9250  
G01 X7.4039  Y8.9527  
G01 X7.3827  Y8.9739  
G01 X7.3550  Y8.9854  
G01 X6.8154  Y8.9854  
G01 X6.8154  Y9.0886  
G01 X7.3635  Y9.0886  
G00 Z3.0000  
G00 X5.7646  Y8.9250  
G01 Z-0.0500 F100   
G01 X5.7646  Y8.6854  F100   
G01 X5.6614  Y8.6854  
G01 X5.6614  Y8.9335  
G01 X5.6736  Y8.9789  
G01 X5.6971  Y9.0197  
G01 X5.7303  Y9.0529  
G01 X5.7711  Y9.0764  
G01 X5.8165  Y9.0886  
G01 X6.3646  Y9.0886  
G01 X6.3646  Y8.9854  
G01 X5.8250  Y8.9854  
G01 X5.7973  Y8.9739  
G01 X5.7761  Y8.9527  
G01 X5.7646  Y8.9250  
G00 Z3.0000  
G00 X5.7646  Y7.9950  
G01 Z-0.0500 F100   
G01 X5.7761  Y7.9673  F100   
G01 X5.7973  Y7.9461  
G01 X5.8250  Y7.9346  
G01 X6.3646  Y7.9346  
G01 X6.3646  Y7.8314  
G01 X5.8165  Y7.8314  
G01 X5.7711  Y7.8436  
G01 X5.7303  Y7.8671  
G01 X5.6971  Y7.9003  
G01 X5.6736  Y7.9411  
G01 X5.6614  Y7.9865  
G01 X5.6614  Y8.2346  
G01 X5.7646  Y8.2346  
G01 X5.7646  Y7.9950  
G00 Z3.0000  
G00 X7.5186  Y7.9865  
G01 Z-0.0500 F100   
G01 X7.5064  Y7.9411  F100   
G01 X7.4829  Y7.9003  
G01 X7.4497  Y7.8671  
G01 X7.4089  Y7.8436  
G01 X7.3635  Y7.8314  
G01 X6.8154  Y7.8314  
G01 X6.8154  Y7.9346  
G01 X7.3550  Y7.9346  
G01 X7.3827  Y7.9461  
G01 X7.4039  Y7.9673  
G01 X7.4154  Y7.9950  
G01 X7.4154  Y8.2346  
G01 X7.5186  Y8.2346  
G01 X7.5186  Y7.9865  
G00 Z3.0000  
G00 X12.3170 Y8.9419  
G01 Z-0.0500 F100   
G01 X12.3170 Y7.9781  F100   
G01 X12.2719 Y7.9330  
G01 X10.7081 Y7.9330  
G01 X10.6630 Y7.9781  
G01 X10.6630 Y8.9419  
G01 X10.7081 Y8.9870  
G01 X12.2719 Y8.9870  
G01 X12.3170 Y8.9419  
G00 Z3.0000  
G00 X10.6646 Y8.9250  
G01 Z-0.0500 F100   
G01 X10.6646 Y7.9950  F100   
G01 X10.6761 Y7.9673  
G01 X10.6973 Y7.9461  
G01 X10.7250 Y7.9346  
G01 X12.2550 Y7.9346  
G01 X12.2827 Y7.9461  
G01 X12.3039 Y7.9673  
G01 X12.3154 Y7.9950  
G01 X12.3154 Y8.9250  
G01 X12.3039 Y8.9527  
G01 X12.2827 Y8.9739  
G01 X12.2550 Y8.9854  
G01 X10.7250 Y8.9854  
G01 X10.6973 Y8.9739  
G01 X10.6761 Y8.9527  
G01 X10.6646 Y8.9250  
G00 Z3.0000  
G00 X20.2698 Y7.9152  
G01 Z-0.0500 F100   
G01 X18.1902 Y7.9152  F100   
G01 X17.9941 Y7.8762  
G01 X17.8093 Y7.7997  
G01 X17.6430 Y7.6886  
G01 X17.5016 Y7.5472  
G01 X17.3905 Y7.3809  
G01 X17.3488 Y7.2802  
G01 X17.1114 Y7.2802  
G01 X17.1114 Y7.5650  
G01 X17.0999 Y7.5927  
G01 X17.0787 Y7.6139  
G01 X17.0510 Y7.6254  
G01 X15.8210 Y7.6254  
G01 X15.7933 Y7.6139  
G01 X15.7721 Y7.5927  
G01 X15.7606 Y7.5650  
G01 X15.7606 Y6.2350  
G01 X15.7721 Y6.2073  
G01 X15.7933 Y6.1861  
G01 X15.8210 Y6.1746  
G01 X17.0510 Y6.1746  
G01 X17.0787 Y6.1861  
G01 X17.0999 Y6.2073  
G01 X17.1114 Y6.2350  
G01 X17.1114 Y6.5198  
G01 X17.3488 Y6.5198  
G01 X17.3905 Y6.4191  
G01 X17.5016 Y6.2528  
G01 X17.6430 Y6.1114  
G01 X17.8093 Y6.0003  
G01 X17.9941 Y5.9238  
G01 X18.1902 Y5.8848  
G01 X20.2698 Y5.8848  
G01 X20.4659 Y5.9238  
G01 X20.6507 Y6.0003  
G01 X20.8170 Y6.1114  
G01 X20.9584 Y6.2528  
G01 X21.0695 Y6.4191  
G01 X21.1460 Y6.6039  
G01 X21.1850 Y6.8000  
G01 X21.1850 Y7.0000  
G01 X21.1460 Y7.1961  
G01 X21.0695 Y7.3809  
G01 X20.9584 Y7.5472  
G01 X20.8170 Y7.6886  
G01 X20.6507 Y7.7997  
G01 X20.4659 Y7.8762  
G01 X20.2698 Y7.9152  
G00 Z3.0000  
G00 X5.7646  Y5.6250  
G01 Z-0.0500 F100   
G01 X5.7646  Y4.6950  F100   
G01 X5.7761  Y4.6673  
G01 X5.7973  Y4.6461  
G01 X5.8250  Y4.6346  
G01 X7.3550  Y4.6346  
G01 X7.3827  Y4.6461  
G01 X7.4039  Y4.6673  
G01 X7.4154  Y4.6950  
G01 X7.4154  Y5.4477  
G01 X8.4875  Y6.5198  
G01 X13.7286 Y6.5198  
G01 X13.7286 Y6.2350  
G01 X13.7401 Y6.2073  
G01 X13.7613 Y6.1861  
G01 X13.7890 Y6.1746  
G01 X15.0190 Y6.1746  
G01 X15.0467 Y6.1861  
G01 X15.0679 Y6.2073  
G01 X15.0794 Y6.2350  
G01 X15.0794 Y7.5650  
G01 X15.0679 Y7.5927  
G01 X15.0467 Y7.6139  
G01 X15.0190 Y7.6254  
G01 X13.7890 Y7.6254  
G01 X13.7613 Y7.6139  
G01 X13.7401 Y7.5927  
G01 X13.7286 Y7.5650  
G01 X13.7286 Y7.2802  
G01 X8.2799  Y7.2802  
G01 X8.1832  Y7.2543  
G01 X8.0966  Y7.2042  
G01 X6.5777  Y5.6854  
G01 X5.8250  Y5.6854  
G01 X5.7973  Y5.6739  
G01 X5.7761  Y5.6527  
G01 X5.7646  Y5.6250  
G00 Z3.0000  
G00 X4.4686  Y6.9601  
G01 Z-0.0500 F100   
G01 X4.4915  Y6.9048  F100   
G01 X4.5338  Y6.8625  
G01 X4.5891  Y6.8396  
G01 X7.6973  Y6.8396  
G01 X7.7526  Y6.8625  
G01 X7.7949  Y6.9048  
G01 X8.1719  Y7.2818  
G01 X13.6065 Y7.2818  
G01 X13.6618 Y7.3047  
G01 X13.7041 Y7.3470  
G01 X13.7270 Y7.4023  
G01 X13.7270 Y7.5819  
G01 X13.7721 Y7.6270  
G01 X15.0359 Y7.6270  
G01 X15.0810 Y7.5819  
G01 X15.0810 Y6.9601  
G01 X15.1039 Y6.9048  
G01 X15.1462 Y6.8625  
G01 X15.2015 Y6.8396  
G01 X15.6385 Y6.8396  
G01 X15.6938 Y6.8625  
G01 X15.7361 Y6.9048  
G01 X15.7590 Y6.9601  
G01 X15.7590 Y7.5819  
G01 X15.8041 Y7.6270  
G01 X17.0679 Y7.6270  
G01 X17.1130 Y7.5819  
G01 X17.1130 Y7.4412  
G01 X17.1222 Y7.4189  
G01 X17.1359 Y7.3859  
G01 X17.1782 Y7.3436  
G01 X17.2099 Y7.3305  
G01 X17.2335 Y7.3207  
G01 X17.2933 Y7.3207  
G01 X17.3156 Y7.3299  
G01 X17.3486 Y7.3436  
G01 X17.3909 Y7.3859  
G01 X17.4087 Y7.4289  
G01 X17.4138 Y7.4412  
G01 X17.4282 Y7.4760  
G01 X17.7142 Y7.7620  
G01 X18.0879 Y7.9168  
G01 X20.3721 Y7.9168  
G01 X20.7458 Y7.7620  
G01 X21.0318 Y7.4760  
G01 X21.1866 Y7.1023  
G01 X21.1866 Y6.9601  
G01 X21.2095 Y6.9048  
G01 X21.2518 Y6.8625  
G01 X21.3071 Y6.8396  
G01 X23.5727 Y6.8396  
G01 X23.6280 Y6.8625  
G01 X23.6703 Y6.9048  
G01 X23.6932 Y6.9601  
G01 X23.6932 Y12.8327 
G01 X23.6703 Y12.8880 
G01 X23.6280 Y12.9303 
G01 X23.5727 Y12.9532 
G01 X1.1373  Y12.9532 
G01 X1.0820  Y12.9303 
G01 X1.0397  Y12.8880 
G01 X1.0168  Y12.8327 
G01 X1.0168  Y6.9601  
G01 X1.0397  Y6.9048  
G01 X1.0820  Y6.8625  
G01 X1.1373  Y6.8396  
G01 X2.3909  Y6.8396  
G01 X2.4462  Y6.8625  
G01 X2.4885  Y6.9048  
G01 X2.5114  Y6.9601  
G01 X2.5114  Y7.2946  
G01 X2.6146  Y7.2946  
G01 X2.6146  Y6.8550  
G01 X2.6261  Y6.8273  
G01 X2.6473  Y6.8061  
G01 X2.6750  Y6.7946  
G01 X4.3050  Y6.7946  
G01 X4.3327  Y6.8061  
G01 X4.3539  Y6.8273  
G01 X4.3654  Y6.8550  
G01 X4.3654  Y7.2946  
G01 X4.4686  Y7.2946  
G01 X4.4686  Y6.9601  
G00 Z3.0000  
G00 X4.3050  Y6.2454  
G01 Z-0.0500 F100   
G01 X2.6750  Y6.2454  F100   
G01 X2.6473  Y6.2339  
G01 X2.6261  Y6.2127  
G01 X2.6146  Y6.1850  
G01 X2.6146  Y5.7454  
G01 X2.5114  Y5.7454  
G01 X2.5114  Y6.0699  
G01 X2.4885  Y6.1252  
G01 X2.4462  Y6.1675  
G01 X2.3909  Y6.1904  
G01 X1.1373  Y6.1904  
G01 X1.0820  Y6.1675  
G01 X1.0397  Y6.1252  
G01 X1.0168  Y6.0699  
G01 X1.0168  Y1.1976  
G01 X1.0168  Y1.1677  
G01 X1.0168  Y1.1378  
G01 X1.0281  Y1.1104  
G01 X1.0397  Y1.0825  
G01 X1.0589  Y1.0633  
G01 X1.0820  Y1.0402  
G01 X1.1099  Y1.0286  
G01 X1.1373  Y1.0173  
G01 X1.1681  Y1.0173  
G01 X1.1971  Y1.0173  
G01 X23.4392 Y1.0263  
G01 X23.4699 Y1.0263  
G01 X23.4974 Y1.0377  
G01 X23.5252 Y1.0492  
G01 X23.5445 Y1.0685  
G01 X23.5675 Y1.0915  
G01 X23.5791 Y1.1196  
G01 X23.5904 Y1.1468  
G01 X23.5904 Y1.1768  
G01 X23.5904 Y6.0699  
G01 X23.5675 Y6.1252  
G01 X23.5252 Y6.1675  
G01 X23.4699 Y6.1904  
G01 X20.9305 Y6.1904  
G01 X20.8768 Y6.1682  
G01 X20.8330 Y6.1252  
G01 X20.7458 Y6.0380  
G01 X20.3721 Y5.8832  
G01 X18.0879 Y5.8832  
G01 X17.7142 Y6.0380  
G01 X17.6270 Y6.1252  
G01 X17.5860 Y6.1662  
G01 X17.5295 Y6.1904  
G01 X17.1775 Y6.1904  
G01 X17.1479 Y6.1904  
G01 X17.1177 Y6.1904  
G01 X17.0924 Y6.1799  
G01 X17.0757 Y6.1730  
G01 X15.7963 Y6.1730  
G01 X15.7805 Y6.1796  
G01 X15.7543 Y6.1904  
G01 X15.7247 Y6.1904  
G01 X15.6945 Y6.1904  
G01 X15.1455 Y6.1904  
G01 X15.1159 Y6.1904  
G01 X15.0857 Y6.1904  
G01 X15.0604 Y6.1799  
G01 X15.0437 Y6.1730  
G01 X13.7643 Y6.1730  
G01 X13.7485 Y6.1796  
G01 X13.7223 Y6.1904  
G01 X13.6927 Y6.1904  
G01 X13.6625 Y6.1904  
G01 X8.1927  Y6.1904  
G01 X8.1374  Y6.1675  
G01 X8.0951  Y6.1252  
G01 X7.4399  Y5.4699  
G01 X7.4170  Y5.4147  
G01 X7.4170  Y4.6781  
G01 X7.3719  Y4.6330  
G01 X5.8081  Y4.6330  
G01 X5.7630  Y4.6781  
G01 X5.7630  Y5.6419  
G01 X5.8081  Y5.6870  
G01 X6.5447  Y5.6870  
G01 X6.5999  Y5.7099  
G01 X6.6423  Y5.7522  
G01 X6.8449  Y5.9548  
G01 X6.8678  Y6.0101  
G01 X6.8678  Y6.0699  
G01 X6.8449  Y6.1252  
G01 X6.8026  Y6.1675  
G01 X6.7473  Y6.1904  
G01 X4.5891  Y6.1904  
G01 X4.5338  Y6.1675  
G01 X4.4915  Y6.1252  
G01 X4.4686  Y6.0699  
G01 X4.4686  Y5.7454  
G01 X4.3654  Y5.7454  
G01 X4.3654  Y6.1850  
G01 X4.3539  Y6.2127  
G01 X4.3327  Y6.2339  
G01 X4.3050  Y6.2454  
G00 Z3.0000  
G00 Z30.0000 
M05
M02
