(.../eagle/upl/pcb-gcode/pcb-gcode.ulp)
(Copyright 2005 - 2012 by John Johnson)
(See readme.txt for licensing terms.)
(This file generated from the board:)
(.../pcbs/LED Board/NeoPixel Stick.brd)
(Current profile is .../upl/pcb-gcode/profiles/mach.pp  )
(This file generated 10/07/2018 11:09)
(Settings from pcb-machine.h)
(  Tool Size)
(0.1000  )
(Z Axis Settings)
(  High     Up        Down     Drill)
(30.0000 	3.0000  	-0.0500 	-1.4800 )
(spindle on time = 3.0000)
(milling depth = -1.4500)
(text depth = -0.1270)
(tool change at 12.7000 15.2400 45.0000 )
(feed rate xy = F100   )
(feed rate z  = F100   )
(Settings from pcb-defaults.h)
(isolate min = 0.0254)
(isolate max = 0.1000)
(isolate step = 0.1270)
(Generated top outlines, top drill, )
(Unit of measure: mm)
(Metric Mode)
G21
(Absolute Coordinates)
G90
G00 X0.0000  Y0.0000  
M03
G04 P3.000000
G00 Z3.0000  
G00 X0.9700  Y6.1000  
G01 Z-1.4500 F100   
G01 X0.9700  Y0.8700  F100   
G01 X10.5900 Y0.8700  
G00 Z3.0000  
G00 X11.9200 Y0.8700  
G01 Z-1.4500 F100   
G01 X23.5700 Y0.8800  F100   
G01 X23.5700 Y6.1900  
G00 Z3.0000  
G00 X23.5600 Y7.4400  
G01 Z-1.4500 F100   
G01 X23.5600 Y12.9200 F100   
G01 X11.8900 Y12.9200 
G00 Z3.0000  
G00 X10.5400 Y12.9100 
G01 Z-1.4500 F100   
G01 X0.9500  Y12.9100 F100   
G01 X0.9500  Y7.2800  
G00 Z30.0000 
M05
M02
